X:118
T:Trip to Highgate THO4.118
M:6/8
L:1/8
Z:vmp. Peter Dunk 2010/11.from a transcription by Fynn Titford-Mock 2007
B:Thompson's Compleat Collection of 200 Favourite Country Dances Volume IV.
Q:3/8=110
K:G
G|G2 B-B2 d|d2 g-g2 d|edc BAG| FGA A2 G|\
G2 B-B2 d|d2 g-g2 d|edc B2 A| G2 G G2:|
|:d|d2 D-D2 c| c2 C-C2 c|B2 A GFG| ADD D2 d|\
d2 D-D2 c| c2 C-C2 c|BAG AGF| G2 G G2:|
